public/images/success-icon.svg

<svg width="200" height="200" viewBox="0 0 200 200" fill="none" xmlns="http://www.w3.org/2000/svg">
<path d="M200 100C200 155.228 155.228 200 100 200C44.7715 200 0 155.228 0 100C0 44.7715 44.7715 0 100 0C155.228 0 200 44.7715 200 100Z" fill="#D1FAEC"/>
<path d="M138.187 77.1532C141.203 74.1611 141.222 69.2907 138.23 66.2747C136.73 64.7627 134.758 64.0039 132.784 64L147.385 64C149.364 64.0001 151.342 64.7589 152.846 66.2747C155.838 69.2907 155.818 74.1612 152.802 77.1532L94.6488 134.846C93.1493 136.333 91.1902 137.077 89.2312 137.077L73.9233 137.077L73.9051 137.044C76.0937 137.246 78.3523 136.513 80.0333 134.845L138.187 77.1532Z" fill="#33CC99"/>
<path d="M49.2983 96.977C49.4225 96.9706 49.5468 96.9673 49.6711 96.9669H49.3082C49.3049 96.9703 49.3016 96.9736 49.2983 96.977Z" fill="#33CC99"/>
<path d="M49.7142 96.9669C51.6654 96.9724 53.6154 97.7156 55.1101 99.1983L74.6157 118.549L81.9234 111.299L69.7255 99.1983C68.2253 97.7101 66.2664 96.9669 64.3079 96.9669H49.7142Z" fill="#33CC99"/>
<path d="M132.754 64L132 64L131.968 64.0416C132.229 64.0144 132.492 64.0005 132.754 64Z" fill="#33CC99"/>
<path d="M138.23 66.2747C141.222 69.2907 141.203 74.1612 138.187 77.1532L80.0332 134.846C77.0342 137.821 72.197 137.821 69.198 134.846L44.2747 110.12C41.2588 107.128 41.2394 102.258 44.2314 99.2417C47.2234 96.2257 52.0939 96.2063 55.1099 99.1983L74.6156 118.549L127.352 66.2314C130.368 63.2394 135.238 63.2588 138.23 66.2747Z" fill="white"/>
<path d="M49.7141 96.967C51.6652 96.9724 53.6153 97.7156 55.1099 99.1983L74.6156 118.549L81.9232 111.299M49.7141 96.967C47.728 96.9614 45.7407 97.7203 44.2314 99.2417C41.2394 102.258 41.2588 107.128 44.2747 110.12L69.198 134.846C70.686 136.322 72.6264 137.065 74.5703 137.077M49.7141 96.967C53.4626 96.967 62.4017 96.967 64.3078 96.967C66.2662 96.9669 68.2252 97.7101 69.7253 99.1984L81.9232 111.299M49.7141 96.967C49.5709 96.967 49.8414 96.967 49.7141 96.967ZM81.9232 111.299L127.352 66.2314C128.848 64.7469 130.801 64.0037 132.754 64M74.5703 137.077C76.5444 137.088 78.5221 136.345 80.0332 134.846L138.187 77.1532C141.203 74.1612 141.222 69.2907 138.23 66.2747C136.723 64.7551 134.738 63.9962 132.754 64M74.5703 137.077C79.3109 137.077 87.3602 137.077 89.231 137.077C91.1901 137.077 93.1491 136.333 94.6486 134.846L152.802 77.1532C155.818 74.1612 155.838 69.2907 152.846 66.2748C151.342 64.759 149.364 64.0001 147.385 64C145.506 64 138.735 64 132.754 64" stroke="#124937" stroke-width="2" stroke-linecap="round" stroke-linejoin="round"/>
</svg>

<svg xmlns="http://www.w3.org/2000/svg" width="200" height="200" fill="none" viewBox="0 0 200 200"><path fill="#d1faec" d="M200 100c0 55.228-44.772 100-100 100S0 155.228 0 100 44.772 0 100 0s100 44.772 100 100"/><path fill="#3c9" d="M138.187 77.153A7.692 7.692 0 0 0 132.784 64h14.601a7.692 7.692 0 0 1 5.417 13.153l-58.153 57.693a7.67 7.67 0 0 1-5.418 2.231H73.923l-.018-.033a7.68 7.68 0 0 0 6.128-2.199zM49.298 96.977q.186-.01.373-.01h-.363zM49.714 96.967a7.67 7.67 0 0 1 5.396 2.231l19.506 19.351 7.307-7.25-12.198-12.1a7.67 7.67 0 0 0-5.417-2.232zM132.754 64H132l-.032.042q.392-.041.786-.042"/><path fill="#fff" d="M138.23 66.275a7.69 7.69 0 0 1-.043 10.878l-58.154 57.693a7.693 7.693 0 0 1-10.835 0L44.275 110.12A7.692 7.692 0 1 1 55.11 99.198l19.506 19.351 52.736-52.318a7.69 7.69 0 0 1 10.878.044"/><path stroke="#124937" stroke-linecap="round" stroke-linejoin="round" stroke-width="2" d="M49.714 96.967a7.67 7.67 0 0 1 5.396 2.231l19.506 19.351 7.307-7.25M49.714 96.967a7.692 7.692 0 0 0-5.44 13.153l24.924 24.726a7.67 7.67 0 0 0 5.372 2.231m-24.856-40.11h14.594c1.958 0 3.917.743 5.417 2.231L81.923 111.3M49.714 96.967c-.143 0 .127 0 0 0m32.21 14.332 45.428-45.068A7.67 7.67 0 0 1 132.754 64M74.57 137.077a7.67 7.67 0 0 0 5.463-2.231l58.154-57.693A7.692 7.692 0 0 0 132.754 64M74.57 137.077h14.661a7.67 7.67 0 0 0 5.418-2.231l58.153-57.693A7.692 7.692 0 0 0 147.385 64h-14.631"/></svg>
